Dominus_Dark_Funeral/22/mimes/text-x-vala.svg

<svg xmlns="http://www.w3.org/2000/svg" width="24" height="24" version="1"><defs><linearGradient id="a"><stop offset="0"/><stop offset="1" stop-color="#010000" stop-opacity="0"/></linearGradient></defs><path d="M20.565 1.77c-1.903 0-2.86.672-3.618 1.607-.76.924-1.21 2.166-1.728 3.222-.34.726-1.122 3.377-1.837 5.896-.605 2.068-1.143 4.125-2.034 5.95-.638.98-1.662 1.53-2.696 1.53-.363 0-.725-.067-1.077-.2 1.232 1.739 4.059 4.589 7.359-.13 2.288-3.278 3.31-10.341 4.675-12.981 2.046-3.377 3.079-2.585 3.332-2.3.044-.285.067-.56.056-.835-.022-.517-.144-.902-.44-1.188-.298-.297-.848-.571-1.992-.571zM5.122 4.739v.013a6.424 6.424 0 0 1 .019.01 5.544 5.544 0 0 0-.02-.023zm.019.023a5.544 5.544 0 0 1 1.091 2.112c.528 1.903.638 4.257.748 6.325.066 1.034.122 2.002.221 2.75.077 1.188.527 1.99 1.45 2.067 1.123-.055 1.464-1.386 1.794-2.376-.495-.22-1.232-1.43-1.793-6.05A6.424 6.424 0 0 0 5.14 4.762zm-3.034.462c-.23 0-.439.077-.593.187-.22.143-.408.396-.496.913-.12.792.407 1.673.902 2.366 0 0 0-.992.946-1.476.517-.264 1.155.176 1.65.616l-.11-.416c-.385-1.397-1.32-2.058-2.034-2.168z" fill="#e6e6e6"/></svg>

<?xml version="1.0" encoding="UTF-8" standalone="no"?>
<svg
   xmlns:dc="http://purl.org/dc/elements/1.1/"
   xmlns:cc="http://creativecommons.org/ns#"
   xmlns:rdf="http://www.w3.org/1999/02/22-rdf-syntax-ns#"
   xmlns:svg="http://www.w3.org/2000/svg"
   xmlns="http://www.w3.org/2000/svg"
   xmlns:sodipodi="http://sodipodi.sourceforge.net/DTD/sodipodi-0.dtd"
   xmlns:inkscape="http://www.inkscape.org/namespaces/inkscape"
   width="24"
   height="24"
   version="1"
   id="svg11"
   sodipodi:docname="text-x-vala.svg"
   inkscape:version="0.92.4 (5da689c313, 2019-01-14)">
  <metadata
     id="metadata15">
    <rdf:RDF>
      <cc:Work
         rdf:about="">
        <dc:format>image/svg+xml</dc:format>
        <dc:type
           rdf:resource="http://purl.org/dc/dcmitype/StillImage" />
        <dc:title></dc:title>
      </cc:Work>
    </rdf:RDF>
  </metadata>
  <sodipodi:namedview
     pagecolor="#ffffff"
     bordercolor="#666666"
     borderopacity="1"
     objecttolerance="10"
     gridtolerance="10"
     guidetolerance="10"
     inkscape:pageopacity="0"
     inkscape:pageshadow="2"
     inkscape:window-width="1112"
     inkscape:window-height="480"
     id="namedview13"
     showgrid="false"
     inkscape:zoom="9.8333333"
     inkscape:cx="1.0677966"
     inkscape:cy="12"
     inkscape:window-x="0"
     inkscape:window-y="25"
     inkscape:window-maximized="0"
     inkscape:current-layer="svg11" />
  <defs
     id="defs7">
    <linearGradient
       id="a">
      <stop
         offset="0"
         id="stop2" />
      <stop
         offset="1"
         stop-color="#010000"
         stop-opacity="0"
         id="stop4" />
    </linearGradient>
  </defs>
  <path
     d="m 20.565,1.77 c -1.903,0 -2.86,0.672 -3.618,1.607 -0.76,0.924 -1.21,2.166 -1.728,3.222 -0.34,0.726 -1.122,3.377 -1.837,5.896 -0.605,2.068 -1.143,4.125 -2.034,5.95 -0.638,0.98 -1.662,1.53 -2.696,1.53 -0.363,0 -0.725,-0.067 -1.077,-0.2 1.232,1.739 4.059,4.589 7.359,-0.13 2.288,-3.278 3.31,-10.341 4.675,-12.981 2.046,-3.377 3.079,-2.585 3.332,-2.3 0.044,-0.285 0.067,-0.56 0.056,-0.835 C 22.975,3.012 22.853,2.627 22.557,2.341 22.259,2.044 21.709,1.77 20.565,1.77 Z M 5.122,4.739 v 0.013 a 6.424,6.424 0 0 1 0.019,0.01 5.544,5.544 0 0 0 -0.02,-0.023 z m 0.019,0.023 a 5.544,5.544 0 0 1 1.091,2.112 c 0.528,1.903 0.638,4.257 0.748,6.325 0.066,1.034 0.122,2.002 0.221,2.75 0.077,1.188 0.527,1.99 1.45,2.067 C 9.774,17.961 10.115,16.63 10.445,15.64 9.95,15.42 9.213,14.21 8.652,9.59 A 6.424,6.424 0 0 0 5.14,4.762 Z M 2.107,5.224 c -0.23,0 -0.439,0.077 -0.593,0.187 -0.22,0.143 -0.408,0.396 -0.496,0.913 -0.12,0.792 0.407,1.673 0.902,2.366 0,0 0,-0.992 0.946,-1.476 C 3.383,6.95 4.021,7.39 4.516,7.83 L 4.406,7.414 C 4.021,6.017 3.086,5.356 2.372,5.246 Z"
     id="path9"
     inkscape:connector-curvature="0"
     style="fill:#e6e6e6" />
</svg>
